X: 32531
T: Planxty Dermot Grogan
R: jig
M: 6/8
K: Dmajor
|:A2|F3 E2D|B3 ABd|e3 fde|fee dBA|
B3 A2B|AFD FED|E3 F2D|E3 ADE|
F3 FDE|FEE DFA|B3 d2e|f3 edA|
B3 A2B|AFD FED|E3 F2E|D3 D:|
|:A2|e3 fde|fee dfa|baa fab|afd fed|
e3 fde|fee dBA|B3 dAF|D3 ADE|
F3 FDE|FEE DFA|B3 d2e|f3 edA|
B3 A2B|AFD FED|E3 F2E|D3 D:|

